static/img/kroki/d9d35beac9698261f63b26a11dd0217d.svg

<?xml version="1.0" encoding="us-ascii" standalone="no"?><svg xmlns="http://www.w3.org/2000/svg" xmlns:xlink="http://www.w3.org/1999/xlink" contentStyleType="text/css" height="846px" preserveAspectRatio="none" style="width:326px;height:846px;" version="1.1" viewBox="0 0 326 846" width="326px" zoomAndPan="magnify"><defs/><g><!--class aws_backup_framework--><g id="elem_aws_backup_framework"><rect codeLine="23" fill="#3D176E" height="205.5703" id="aws_backup_framework" rx="2.5" ry="2.5" style="stroke:#000D19;stroke-width:0.5;" width="312" x="7" y="633.84"/><ellipse cx="52.75" cy="653.7345" fill="#ADD1B2" rx="11" ry="11" style="stroke:#181818;stroke-width:1.0;"/><path d="M55.7188,659.3752 Q55.1406,659.672 54.5,659.8127 Q53.8594,659.9689 53.1563,659.9689 Q50.6563,659.9689 49.3281,658.3283 Q48.0156,656.672 48.0156,653.547 Q48.0156,650.422 49.3281,648.7658 Q50.6563,647.1095 53.1563,647.1095 Q53.8594,647.1095 54.5,647.2658 Q55.1563,647.422 55.7188,647.7189 L55.7188,650.4377 Q55.0938,649.8595 54.5,649.5939 Q53.9063,649.3127 53.2813,649.3127 Q51.9375,649.3127 51.25,650.3908 Q50.5625,651.4533 50.5625,653.547 Q50.5625,655.6408 51.25,656.7189 Q51.9375,657.7814 53.2813,657.7814 Q53.9063,657.7814 54.5,657.5158 Q55.0938,657.2345 55.7188,656.6564 L55.7188,659.3752 Z " fill="#000000"/><text fill="#D9B8FF" font-family="Helvetica" font-size="17" lengthAdjust="spacing" textLength="202" x="78.25" y="659.6198">aws_backup_framework</text><line style="stroke:#000D19;stroke-width:0.5;" x1="8" x2="318" y1="673.6291" y2="673.6291"/><text fill="#D9B8FF" font-family="sans-serif" font-size="14" font-weight="bold" lengthAdjust="spacing" textLength="106" x="18" y="695.6242">creation_time</text><text fill="#D9B8FF" font-family="sans-serif" font-size="14" lengthAdjust="spacing" textLength="70" x="124" y="695.6242">: datetime</text><text fill="#D9B8FF" font-family="sans-serif" font-size="14" font-weight="bold" lengthAdjust="spacing" textLength="119" x="18" y="721.9211">framework_arn</text><text fill="#D9B8FF" font-family="sans-serif" font-size="14" lengthAdjust="spacing" textLength="48" x="137" y="721.9211">: string</text><text fill="#D9B8FF" font-family="sans-serif" font-size="14" font-weight="bold" lengthAdjust="spacing" textLength="242" x="18" y="748.2179">framework_deployment_status</text><text fill="#D9B8FF" font-family="sans-serif" font-size="14" lengthAdjust="spacing" textLength="48" x="260" y="748.2179">: string</text><text fill="#D9B8FF" font-family="sans-serif" font-size="14" font-weight="bold" lengthAdjust="spacing" textLength="182" x="18" y="774.5148">framework_description</text><text fill="#D9B8FF" font-family="sans-serif" font-size="14" lengthAdjust="spacing" textLength="48" x="200" y="774.5148">: string</text><text fill="#D9B8FF" font-family="sans-serif" font-size="14" font-weight="bold" lengthAdjust="spacing" textLength="136" x="18" y="800.8117">framework_name</text><text fill="#D9B8FF" font-family="sans-serif" font-size="14" lengthAdjust="spacing" textLength="48" x="154" y="800.8117">: string</text><text fill="#D9B8FF" font-family="sans-serif" font-size="14" font-weight="bold" lengthAdjust="spacing" textLength="156" x="18" y="827.1086">number_of_controls</text><text fill="#D9B8FF" font-family="sans-serif" font-size="14" lengthAdjust="spacing" textLength="44" x="174" y="827.1086">: int64</text></g><!--class aws_resource--><g id="elem_aws_resource"><rect codeLine="31" fill="#3D176E" height="74.0859" id="aws_resource" rx="2.5" ry="2.5" style="stroke:#000D19;stroke-width:0.5;" width="155" x="85.5" y="438.75"/><ellipse cx="100.5" cy="458.6445" fill="#ADD1B2" rx="11" ry="11" style="stroke:#181818;stroke-width:1.0;"/><path d="M103.4688,464.2852 Q102.8906,464.582 102.25,464.7227 Q101.6094,464.8789 100.9063,464.8789 Q98.4063,464.8789 97.0781,463.2383 Q95.7656,461.582 95.7656,458.457 Q95.7656,455.332 97.0781,453.6758 Q98.4063,452.0195 100.9063,452.0195 Q101.6094,452.0195 102.25,452.1758 Q102.9063,452.332 103.4688,452.6289 L103.4688,455.3477 Q102.8438,454.7695 102.25,454.5039 Q101.6563,454.2227 101.0313,454.2227 Q99.6875,454.2227 99,455.3008 Q98.3125,456.3633 98.3125,458.457 Q98.3125,460.5508 99,461.6289 Q99.6875,462.6914 101.0313,462.6914 Q101.6563,462.6914 102.25,462.4258 Q102.8438,462.1445 103.4688,461.5664 L103.4688,464.2852 Z " fill="#000000"/><text fill="#D9B8FF" font-family="Helvetica" font-size="17" lengthAdjust="spacing" textLength="113" x="119.5" y="464.5298">aws_resource</text><line style="stroke:#000D19;stroke-width:0.5;" x1="86.5" x2="239.5" y1="478.5391" y2="478.5391"/><text fill="#D9B8FF" font-family="sans-serif" font-size="14" font-weight="bold" lengthAdjust="spacing" textLength="26" x="96.5" y="500.5342">arn</text><text fill="#D9B8FF" font-family="sans-serif" font-size="14" lengthAdjust="spacing" textLength="48" x="122.5" y="500.5342">: string</text></g><!--class resource--><g id="elem_resource"><rect codeLine="34" fill="#3D176E" height="310.7578" id="resource" rx="2.5" ry="2.5" style="stroke:#000D19;stroke-width:0.5;" width="227" x="49.5" y="7"/><ellipse cx="118.25" cy="26.8945" fill="#ADD1B2" rx="11" ry="11" style="stroke:#181818;stroke-width:1.0;"/><path d="M121.2188,32.5352 Q120.6406,32.832 120,32.9727 Q119.3594,33.1289 118.6563,33.1289 Q116.1563,33.1289 114.8281,31.4883 Q113.5156,29.832 113.5156,26.707 Q113.5156,23.582 114.8281,21.9258 Q116.1563,20.2695 118.6563,20.2695 Q119.3594,20.2695 120,20.4258 Q120.6563,20.582 121.2188,20.8789 L121.2188,23.5977 Q120.5938,23.0195 120,22.7539 Q119.4063,22.4727 118.7813,22.4727 Q117.4375,22.4727 116.75,23.5508 Q116.0625,24.6133 116.0625,26.707 Q116.0625,28.8008 116.75,29.8789 Q117.4375,30.9414 118.7813,30.9414 Q119.4063,30.9414 120,30.6758 Q120.5938,30.3945 121.2188,29.8164 L121.2188,32.5352 Z " fill="#000000"/><text fill="#D9B8FF" font-family="Helvetica" font-size="17" lengthAdjust="spacing" textLength="71" x="143.75" y="32.7798">resource</text><line style="stroke:#000D19;stroke-width:0.5;" x1="50.5" x2="275.5" y1="46.7891" y2="46.7891"/><text fill="#D9B8FF" font-family="sans-serif" font-size="14" font-weight="bold" lengthAdjust="spacing" textLength="29" x="60.5" y="68.7842">age</text><text fill="#D9B8FF" font-family="sans-serif" font-size="14" lengthAdjust="spacing" textLength="66" x="89.5" y="68.7842">: duration</text><text fill="#D9B8FF" font-family="sans-serif" font-size="14" font-weight="bold" lengthAdjust="spacing" textLength="43" x="60.5" y="95.0811">atime</text><text fill="#D9B8FF" font-family="sans-serif" font-size="14" lengthAdjust="spacing" textLength="70" x="103.5" y="95.0811">: datetime</text><text fill="#D9B8FF" font-family="sans-serif" font-size="14" font-weight="bold" lengthAdjust="spacing" textLength="43" x="60.5" y="121.3779">ctime</text><text fill="#D9B8FF" font-family="sans-serif" font-size="14" lengthAdjust="spacing" textLength="70" x="103.5" y="121.3779">: datetime</text><text fill="#D9B8FF" font-family="sans-serif" font-size="14" font-weight="bold" lengthAdjust="spacing" textLength="14" x="60.5" y="147.6748">id</text><text fill="#D9B8FF" font-family="sans-serif" font-size="14" lengthAdjust="spacing" textLength="48" x="74.5" y="147.6748">: string</text><text fill="#D9B8FF" font-family="sans-serif" font-size="14" font-weight="bold" lengthAdjust="spacing" textLength="33" x="60.5" y="173.9717">kind</text><text fill="#D9B8FF" font-family="sans-serif" font-size="14" lengthAdjust="spacing" textLength="48" x="93.5" y="173.9717">: string</text><text fill="#D9B8FF" font-family="sans-serif" font-size="14" font-weight="bold" lengthAdjust="spacing" textLength="90" x="60.5" y="200.2686">last_access</text><text fill="#D9B8FF" font-family="sans-serif" font-size="14" lengthAdjust="spacing" textLength="66" x="150.5" y="200.2686">: duration</text><text fill="#D9B8FF" font-family="sans-serif" font-size="14" font-weight="bold" lengthAdjust="spacing" textLength="90" x="60.5" y="226.5654">last_update</text><text fill="#D9B8FF" font-family="sans-serif" font-size="14" lengthAdjust="spacing" textLength="66" x="150.5" y="226.5654">: duration</text><text fill="#D9B8FF" font-family="sans-serif" font-size="14" font-weight="bold" lengthAdjust="spacing" textLength="48" x="60.5" y="252.8623">mtime</text><text fill="#D9B8FF" font-family="sans-serif" font-size="14" lengthAdjust="spacing" textLength="70" x="108.5" y="252.8623">: datetime</text><text fill="#D9B8FF" font-family="sans-serif" font-size="14" font-weight="bold" lengthAdjust="spacing" textLength="43" x="60.5" y="279.1592">name</text><text fill="#D9B8FF" font-family="sans-serif" font-size="14" lengthAdjust="spacing" textLength="48" x="103.5" y="279.1592">: string</text><text fill="#D9B8FF" font-family="sans-serif" font-size="14" font-weight="bold" lengthAdjust="spacing" textLength="34" x="60.5" y="305.4561">tags</text><text fill="#D9B8FF" font-family="sans-serif" font-size="14" lengthAdjust="spacing" textLength="171" x="94.5" y="305.4561">: dictionary[string, string]</text></g><!--reverse link aws_resource to aws_backup_framework--><g id="link_aws_resource_aws_backup_framework"><path codeLine="46" d="M163,531.33 C163,562.55 163,591 163,633.38 " fill="none" id="aws_resource-backto-aws_backup_framework" style="stroke:#FFAF37;stroke-width:2.0;"/><polygon fill="none" points="163,513.33,157,531.33,169,531.33,163,513.33" style="stroke:#FFAF37;stroke-width:2.0;"/></g><!--reverse link resource to aws_resource--><g id="link_resource_aws_resource"><path codeLine="47" d="M163,336.17 C163,381.21 163,408.34 163,438.51 " fill="none" id="resource-backto-aws_resource" style="stroke:#FFAF37;stroke-width:2.0;"/><polygon fill="none" points="163,318.17,157,336.17,169,336.17,163,318.17" style="stroke:#FFAF37;stroke-width:2.0;"/></g><!--SRC=[XPDFJ-Cm4CNl-HIMk5LRgLrsAKLxWKfezu9Mm0sXQ6gFKwk97OqdMtM1xuwTq2h_2hTetiypxusTZL4ei2XvBmeiraW-yLjZIo0en3MHswrSxaYSQGtwVD4NRvtbBu4xA53ynlmVif7G9nutHcujUY- -jwGRaDkCN6LLqvu9h0yIMcvHgnoylsOciwuOMsRKSdsfTP_iDpqxL_F51GumHmhf0vdDPcg-x2DVZleqzv5uCFzHpDjBktEC0vk34JNrgSj8j4mEWXxqanx_WbB6Pk9dgtRVU2ABrAa_R42vNQGrvBuznZCIEjwNk1gamkMbqejH-CyfE95nTG9sFbq7f2fJ7KxYpj5Ml2IJYIG4DiwcR0gSJAw40iRu7RGZcGBPgFdmRcpMKHIMkTiNuPMbde4hVvBpaamPHvqWB3G6ZfAjuk-LEftAi7ToUTtRMBxuaRorSX5wLv74Ea_NwG7h8baJjA8wUQoCX9SZDQCw1iCzT0jX5gSWPVWtUnDgfIfZhvvIZCmPh88XQpeQ6Oy1xPyQxTi7ynoYTdRnwtKwdOvUUpB274h9Em00]--></g></svg>

<svg xmlns="http://www.w3.org/2000/svg" width="326" height="846" viewBox="0 0 326 846"><rect width="312" height="205.57" x="7" y="633.84" fill="#3D176E" rx="2.5" ry="2.5" style="stroke:#000d19;stroke-width:.5"/><circle cx="52.75" cy="653.735" r="11" fill="#ADD1B2" style="stroke:#181818;stroke-width:1"/><path d="M55.719 659.375q-.578.297-1.219.438-.64.156-1.344.156-2.5 0-3.828-1.64-1.312-1.657-1.312-4.782t1.312-4.781q1.328-1.656 3.828-1.656.703 0 1.344.156.656.156 1.219.453v2.719q-.625-.578-1.219-.844-.594-.281-1.219-.281-1.343 0-2.031 1.078-.687 1.062-.687 3.156t.687 3.172q.688 1.062 2.031 1.062.625 0 1.219-.265.594-.281 1.219-.86z"/><text x="78.25" y="659.62" fill="#D9B8FF" font-family="Helvetica" font-size="17" textLength="202">aws_backup_framework</text><path d="M8 673.629h310" style="stroke:#000d19;stroke-width:.5"/><text x="18" y="695.624" fill="#D9B8FF" font-family="sans-serif" font-size="14" font-weight="bold" textLength="106">creation_time</text><text x="124" y="695.624" fill="#D9B8FF" font-family="sans-serif" font-size="14" textLength="70">: datetime</text><text x="18" y="721.921" fill="#D9B8FF" font-family="sans-serif" font-size="14" font-weight="bold" textLength="119">framework_arn</text><text x="137" y="721.921" fill="#D9B8FF" font-family="sans-serif" font-size="14" textLength="48">: string</text><text x="18" y="748.218" fill="#D9B8FF" font-family="sans-serif" font-size="14" font-weight="bold" textLength="242">framework_deployment_status</text><text x="260" y="748.218" fill="#D9B8FF" font-family="sans-serif" font-size="14" textLength="48">: string</text><text x="18" y="774.515" fill="#D9B8FF" font-family="sans-serif" font-size="14" font-weight="bold" textLength="182">framework_description</text><text x="200" y="774.515" fill="#D9B8FF" font-family="sans-serif" font-size="14" textLength="48">: string</text><text x="18" y="800.812" fill="#D9B8FF" font-family="sans-serif" font-size="14" font-weight="bold" textLength="136">framework_name</text><text x="154" y="800.812" fill="#D9B8FF" font-family="sans-serif" font-size="14" textLength="48">: string</text><text x="18" y="827.109" fill="#D9B8FF" font-family="sans-serif" font-size="14" font-weight="bold" textLength="156">number_of_controls</text><text x="174" y="827.109" fill="#D9B8FF" font-family="sans-serif" font-size="14" textLength="44">: int64</text><rect width="155" height="74.086" x="85.5" y="438.75" fill="#3D176E" rx="2.5" ry="2.5" style="stroke:#000d19;stroke-width:.5"/><circle cx="100.5" cy="458.644" r="11" fill="#ADD1B2" style="stroke:#181818;stroke-width:1"/><path d="M103.469 464.285q-.578.297-1.219.438-.64.156-1.344.156-2.5 0-3.828-1.64-1.312-1.657-1.312-4.782t1.312-4.781q1.328-1.656 3.828-1.656.703 0 1.344.156.656.156 1.219.453v2.719q-.625-.579-1.219-.844-.594-.281-1.219-.281-1.344 0-2.031 1.078-.687 1.062-.687 3.156t.687 3.172q.688 1.062 2.031 1.062.625 0 1.219-.265.594-.281 1.219-.86z"/><text x="119.5" y="464.53" fill="#D9B8FF" font-family="Helvetica" font-size="17" textLength="113">aws_resource</text><path d="M86.5 478.539h153" style="stroke:#000d19;stroke-width:.5"/><text x="96.5" y="500.534" fill="#D9B8FF" font-family="sans-serif" font-size="14" font-weight="bold" textLength="26">arn</text><text x="122.5" y="500.534" fill="#D9B8FF" font-family="sans-serif" font-size="14" textLength="48">: string</text><rect width="227" height="310.758" x="49.5" y="7" fill="#3D176E" rx="2.5" ry="2.5" style="stroke:#000d19;stroke-width:.5"/><circle cx="118.25" cy="26.895" r="11" fill="#ADD1B2" style="stroke:#181818;stroke-width:1"/><path d="M121.219 32.535q-.578.297-1.219.438-.64.156-1.344.156-2.5 0-3.828-1.64-1.312-1.657-1.312-4.782t1.312-4.781q1.328-1.656 3.828-1.656.703 0 1.344.156.656.156 1.219.453v2.719q-.625-.578-1.219-.844-.594-.281-1.219-.281-1.344 0-2.031 1.078-.687 1.062-.687 3.156t.687 3.172q.688 1.062 2.031 1.062.625 0 1.219-.265.594-.281 1.219-.86z"/><text x="143.75" y="32.78" fill="#D9B8FF" font-family="Helvetica" font-size="17" textLength="71">resource</text><path d="M50.5 46.789h225" style="stroke:#000d19;stroke-width:.5"/><text x="60.5" y="68.784" fill="#D9B8FF" font-family="sans-serif" font-size="14" font-weight="bold" textLength="29">age</text><text x="89.5" y="68.784" fill="#D9B8FF" font-family="sans-serif" font-size="14" textLength="66">: duration</text><text x="60.5" y="95.081" fill="#D9B8FF" font-family="sans-serif" font-size="14" font-weight="bold" textLength="43">atime</text><text x="103.5" y="95.081" fill="#D9B8FF" font-family="sans-serif" font-size="14" textLength="70">: datetime</text><text x="60.5" y="121.378" fill="#D9B8FF" font-family="sans-serif" font-size="14" font-weight="bold" textLength="43">ctime</text><text x="103.5" y="121.378" fill="#D9B8FF" font-family="sans-serif" font-size="14" textLength="70">: datetime</text><text x="60.5" y="147.675" fill="#D9B8FF" font-family="sans-serif" font-size="14" font-weight="bold" textLength="14">id</text><text x="74.5" y="147.675" fill="#D9B8FF" font-family="sans-serif" font-size="14" textLength="48">: string</text><text x="60.5" y="173.972" fill="#D9B8FF" font-family="sans-serif" font-size="14" font-weight="bold" textLength="33">kind</text><text x="93.5" y="173.972" fill="#D9B8FF" font-family="sans-serif" font-size="14" textLength="48">: string</text><text x="60.5" y="200.269" fill="#D9B8FF" font-family="sans-serif" font-size="14" font-weight="bold" textLength="90">last_access</text><text x="150.5" y="200.269" fill="#D9B8FF" font-family="sans-serif" font-size="14" textLength="66">: duration</text><text x="60.5" y="226.565" fill="#D9B8FF" font-family="sans-serif" font-size="14" font-weight="bold" textLength="90">last_update</text><text x="150.5" y="226.565" fill="#D9B8FF" font-family="sans-serif" font-size="14" textLength="66">: duration</text><text x="60.5" y="252.862" fill="#D9B8FF" font-family="sans-serif" font-size="14" font-weight="bold" textLength="48">mtime</text><text x="108.5" y="252.862" fill="#D9B8FF" font-family="sans-serif" font-size="14" textLength="70">: datetime</text><text x="60.5" y="279.159" fill="#D9B8FF" font-family="sans-serif" font-size="14" font-weight="bold" textLength="43">name</text><text x="103.5" y="279.159" fill="#D9B8FF" font-family="sans-serif" font-size="14" textLength="48">: string</text><text x="60.5" y="305.456" fill="#D9B8FF" font-family="sans-serif" font-size="14" font-weight="bold" textLength="34">tags</text><text x="94.5" y="305.456" fill="#D9B8FF" font-family="sans-serif" font-size="14" textLength="171">: dictionary[string, string]</text><path fill="none" d="M163 531.33v102.05m0-120.05-6 18h12zm0-177.16v102.34m0-120.34-6 18h12z" style="stroke:#ffaf37;stroke-width:2"/></svg>
